X:26
T:Now or Never. JJo8.026
B:J.Johnson Choice Collection Vol 8 1758
Z:vmp.Simon Wilson 2013 www.village-music-project.org.uk
M:6/8
L:1/8
Q:3/8=120
K:A
|:E|cBA ABc|E3E2G|ABc dcB|cBAA2B|
cAce3|fga gfe|^def Be^d|e3-e2:|
|:e|edc def|efga3|A3c2e|dBAG2E|
edc BcA|Bcd efg|aed cdB|A3-A2:|
